resources/utilities/icons/wormhole.svg

<?xml version="1.0" encoding="UTF-8" standalone="no"?>
<svg
   viewBox="0 0 192 192"
   version="1.1"
   id="svg196"
   sodipodi:docname="wormhole.svg"
   inkscape:version="1.2.2 (b0a8486541, 2022-12-01)"
   xml:space="preserve"
   inkscape:export-filename="wormhole.png"
   inkscape:export-xdpi="96"
   inkscape:export-ydpi="96"
   xmlns:inkscape="http://www.inkscape.org/namespaces/inkscape"
   xmlns:sodipodi="http://sodipodi.sourceforge.net/DTD/sodipodi-0.dtd"
   xmlns:xlink="http://www.w3.org/1999/xlink"
   xmlns="http://www.w3.org/2000/svg"
   xmlns:svg="http://www.w3.org/2000/svg"><sodipodi:namedview
     id="namedview198"
     pagecolor="#ffffff"
     bordercolor="#111111"
     borderopacity="1"
     inkscape:showpageshadow="0"
     inkscape:pageopacity="0"
     inkscape:pagecheckerboard="1"
     inkscape:deskcolor="#d1d1d1"
     showgrid="false"
     inkscape:zoom="2.9462783"
     inkscape:cx="86.719574"
     inkscape:cy="95.03515"
     inkscape:window-width="1920"
     inkscape:window-height="1011"
     inkscape:window-x="0"
     inkscape:window-y="0"
     inkscape:window-maximized="1"
     inkscape:current-layer="svg196" /><defs
     id="defs184"><style
       id="style182">.a{fill:none;stroke:#b1b5bd;stroke-linecap:round;stroke-linejoin:round;isolation:isolate;opacity:0.63;}</style><linearGradient
       inkscape:collect="always"
       id="linearGradient1574"><stop
         style="stop-color:#54688c;stop-opacity:1;"
         offset="0"
         id="stop1570" /><stop
         style="stop-color:#54688c;stop-opacity:0;"
         offset="1"
         id="stop1572" /></linearGradient><inkscape:path-effect
       effect="bspline"
       id="path-effect353"
       is_visible="true"
       lpeversion="1"
       weight="33.333333"
       steps="2"
       helper_size="0"
       apply_no_weight="true"
       apply_with_weight="true"
       only_selected="false" /><inkscape:path-effect
       effect="bspline"
       id="path-effect349"
       is_visible="true"
       lpeversion="1"
       weight="33.333333"
       steps="2"
       helper_size="0"
       apply_no_weight="true"
       apply_with_weight="true"
       only_selected="false" /><linearGradient
       inkscape:collect="always"
       xlink:href="#linearGradient1574"
       id="linearGradient1576"
       x1="0.50574601"
       y1="25.475878"
       x2="51.629128"
       y2="35.379833"
       gradientUnits="userSpaceOnUse"
       spreadMethod="pad"
       gradientTransform="matrix(0.25759996,0,0,0.25612552,0.16974552,0.2643134)" /></defs><g
     inkscape:label="Layer 1"
     id="layer1"
     transform="matrix(10.561056,0,0,10.561056,28.896114,24.26001)"><path
       sodipodi:type="spiral"
       style="fill:none;fill-rule:evenodd;stroke:#56595b;stroke-width:1.52736;stroke-dasharray:none"
       id="path618"
       sodipodi:cx="8.3341455"
       sodipodi:cy="4.749588"
       sodipodi:expansion="1"
       sodipodi:revolution="3"
       sodipodi:radius="7.1167178"
       sodipodi:argument="-17.462919"
       sodipodi:t0="0"
       d="M 8.3341455,4.749588 C 8.3994868,5.1003753 7.8935284,5.0107327 7.7511141,4.8581894 7.3651801,4.4448065 7.6920068,3.8114536 8.1169428,3.5835251 8.8770535,3.1758145 9.7762216,3.6837593 10.08324,4.4237839 10.533802,5.5097997 9.8243536,6.705871 8.7685511,7.0817139 7.3613324,7.5826533 5.8597553,6.6647939 5.4189882,5.2925949 4.8643278,3.5658225 5.9935559,1.755169 7.6825373,1.2513992 9.72812,0.6412665 11.849688,1.9833791 12.415366,3.9893784 13.081997,6.3533791 11.526124,8.7869387 9.2029566,9.4138397 6.5207681,10.137622 3.7745299,8.3674353 3.0868624,5.7270004 2.3054908,2.7267705 4.2903598,-0.33261289 7.2481317,-1.0807266 10.566305,-1.9199972 13.939165,0.27981388 14.747492,3.5549728 15.644888,7.19102 13.229945,10.877601 9.6373621,11.745966"
       transform="matrix(0.92875221,0,0,0.92117181,-1.9358108,1.9735341)" /><path
       style="fill:url(#linearGradient1576);stroke-width:0.590782;stroke-dasharray:none"
       d="m 7.1009068,13.174539 c -0.00584,-0.01701 -0.054181,-0.211871 -0.1074364,-0.433022 -0.073751,-0.306287 -0.088822,-0.402091 -0.063255,-0.402091 0.1066001,0 0.8558144,-0.276635 1.1737513,-0.433387 C 8.7074583,11.608498 9.1551542,11.29418 9.6359243,10.830483 10.632597,9.8692038 11.248676,8.6569171 11.421776,7.3163775 11.465474,6.9779642 11.459289,6.2731053 11.409603,5.9292642 11.243044,4.7765979 10.751616,3.7609263 9.9639589,2.9414335 8.9701824,1.9074919 7.6706495,1.313139 6.2918314,1.2619532 4.3325133,1.1892181 2.5285809,2.2642053 1.6752404,4.0130423 1.0468575,5.3008533 1.0542784,6.8113669 1.6949073,8.0153633 1.92111,8.4404886 2.1332559,8.7249611 2.4838661,9.0733002 2.8623038,9.4492873 3.1573328,9.6619401 3.6165322,9.8897125 4.2973301,10.227402 4.8886771,10.356349 5.6198971,10.326558 6.198448,10.302987 6.6280351,10.194733 7.1504186,9.9408702 7.5475623,9.7478695 7.8393968,9.5387007 8.1711132,9.2093002 8.6762293,8.7077117 8.9937764,8.1496543 9.1715546,7.451125 c 0.064215,-0.2523154 0.068929,-0.3055342 0.068929,-0.7780935 0,-0.4707572 -0.00489,-0.5264351 -0.0679,-0.7738452 C 8.8605088,4.6739079 7.937068,3.7696353 6.71137,3.4890593 6.5768234,3.4582603 6.4160411,3.4473109 6.1051843,3.4477775 5.73134,3.448341 5.65439,3.4557735 5.4438555,3.5116851 4.9702448,3.6374586 4.582882,3.8451042 4.2333593,4.1605704 3.9132162,4.4495199 3.6239062,4.9126901 3.4874388,5.3547498 c -0.06122,0.1983259 -0.067169,0.2536687 -0.068522,0.6378188 -0.00127,0.3660628 0.00584,0.4456679 0.054726,0.6134429 0.2663251,0.9135954 1.0724369,1.5516648 1.9603131,1.5516648 0.4940895,0 0.8599736,-0.1475485 1.1962873,-0.4824208 C 6.8676814,7.4388322 6.9924179,7.2136847 7.0552632,6.9081001 7.2023303,6.1929816 6.6357704,5.4977062 5.9850364,5.5947312 5.7663324,5.6273403 5.5456558,5.8417074 5.5453637,6.0218318 c -9.93e-5,0.056362 -0.013971,0.083118 -0.048807,0.094113 -0.1218156,0.038441 -0.2446867,0.309646 -0.1402869,0.309646 0.019258,0 0.2158787,-0.033669 0.4369369,-0.074819 0.2210583,-0.04115 0.4138478,-0.067491 0.4284217,-0.058536 0.016785,0.010311 0.02066,0.065635 0.010583,0.1508822 C 6.1722375,6.9504895 5.6372059,7.1636459 5.1138537,6.8886708 4.8755957,6.7634867 4.6944027,6.4936828 4.6435094,6.1883038 4.5707421,5.751672 4.8382112,5.2195656 5.2756037,4.9308153 5.4998466,4.7827791 5.7383723,4.7107305 6.042964,4.6990286 6.3538657,4.687086 6.5541111,4.7266718 6.8346295,4.8555377 7.8173709,5.3069933 8.2458966,6.4815739 7.8087604,7.5256117 7.5799123,8.0721841 7.0925572,8.5681592 6.5312071,8.8257634 6.16521,8.9937192 5.6546218,9.0912127 5.2963678,9.0615473 4.5550709,9.0001643 3.933364,8.7122741 3.4027253,8.1846734 2.9531685,7.7376898 2.6815013,7.2320901 2.5439599,6.5864268 2.4854365,6.3117091 2.4848913,5.7204257 2.542889,5.427432 2.8071841,4.0921574 3.8609647,2.9864525 5.1843856,2.655776 5.5248576,2.5707043 5.7690283,2.5407689 6.122459,2.5407689 c 1.4965854,0 2.9074821,0.889105 3.6014324,2.2695158 0.7361396,1.4643339 0.5449936,3.1946895 -0.5050026,4.5715568 -0.7149187,0.9374755 -1.7453255,1.5585425 -2.9643835,1.7867465 -0.316791,0.0593 -1.086117,0.0708 -1.4407774,0.02154 C 3.0935801,10.951187 1.599599,9.8656511 0.82707374,8.2933975 0.35706246,7.3368243 0.19192621,6.2076345 0.37002213,5.1681067 0.5289867,4.2402482 0.87901757,3.4319417 1.4541948,2.6644873 1.6701689,2.3763144 2.2018445,1.8309865 2.4733511,1.6191599 3.115937,1.1178215 3.9116779,0.72616099 4.6717401,0.53712139 5.2163491,0.40166854 5.4509502,0.37559049 6.1176299,0.37639754 c 0.6331672,7.6659e-4 0.857636,0.0236858 1.3425863,0.13708254 1.9454365,0.45490543 3.5986488,1.83775412 4.3933348,3.67485362 0.213839,0.4943389 0.382371,1.1082848 0.464706,1.6928847 0.04909,0.3485781 0.04234,1.2740682 -0.01201,1.6454817 -0.174373,1.1916842 -0.642789,2.273539 -1.41206,3.2613009 -0.241489,0.310076 -0.9407967,0.990608 -1.2675615,1.233528 -0.6784264,0.504347 -1.4255896,0.882723 -2.1874306,1.107754 -0.2877103,0.08498 -0.3230279,0.08971 -0.3382892,0.04526 z"
       id="path1370" /><ellipse
       style="fill:#54688c;fill-opacity:1;stroke-width:1.07782;stroke-dasharray:none"
       id="path1723"
       cy="6.1458182"
       cx="6.2135754"
       rx="1.8418562"
       ry="1.7520072" /><ellipse
       style="fill:#56595b;fill-opacity:1;stroke-width:1.07782;stroke-dasharray:none;opacity:0.25"
       id="ellipse854"
       cy="6.1458182"
       cx="6.2135754"
       rx="1.8418562"
       ry="1.7520072" /></g></svg>

<svg viewBox="0 0 192 192" version="1.1" id="svg196" xml:space="preserve" xmlns:xlink="http://www.w3.org/1999/xlink" xmlns="http://www.w3.org/2000/svg"><defs id="defs184"><linearGradient id="linearGradient1574"><stop style="stop-color:#54688c;stop-opacity:1" offset="0" id="stop1570"/><stop style="stop-color:#54688c;stop-opacity:0" offset="1" id="stop1572"/></linearGradient><linearGradient xlink:href="#linearGradient1574" id="linearGradient1576" x1=".506" y1="25.476" x2="51.629" y2="35.38" gradientUnits="userSpaceOnUse" spreadMethod="pad" gradientTransform="matrix(.2576 0 0 .25613 .17 .264)"/><style id="style182"></style></defs><g id="layer1" transform="matrix(10.56106 0 0 10.56106 28.896 24.26)"><path style="fill:none;fill-rule:evenodd;stroke:#000;stroke-width:1.52736;stroke-dasharray:none" id="path618" d="M8.334 4.75c.065.35-.44.26-.583.108-.386-.413-.059-1.047.366-1.274.76-.408 1.66.1 1.966.84.45 1.086-.259 2.282-1.314 2.658-1.408.5-2.91-.417-3.35-1.79-.555-1.726.575-3.537 2.264-4.04 2.045-.61 4.167.731 4.732 2.737.667 2.364-.889 4.798-3.212 5.425-2.682.724-5.428-1.047-6.116-3.687-.782-3 1.203-6.06 4.161-6.808 3.318-.839 6.691 1.36 7.5 4.636.897 3.636-1.518 7.323-5.11 8.191" transform="matrix(.92875 0 0 .92117 -1.936 1.974)"/><path style="fill:url(#linearGradient1576);stroke-width:.590782;stroke-dasharray:none" d="M7.1 13.175a18.518 18.518 0 0 1-.107-.433c-.073-.307-.088-.403-.063-.403.107 0 .856-.276 1.174-.433a5.694 5.694 0 0 0 1.532-1.076 5.886 5.886 0 0 0 1.786-3.514 6.89 6.89 0 0 0-.012-1.387 5.347 5.347 0 0 0-1.446-2.988C8.97 1.907 7.671 1.313 6.292 1.262a4.917 4.917 0 0 0-4.617 2.751c-.628 1.288-.62 2.798.02 4.002.226.425.438.71.789 1.058.378.376.673.589 1.133.817.68.337 1.272.466 2.003.437a3.548 3.548 0 0 0 1.53-.386 3.556 3.556 0 0 0 1.021-.732 3.643 3.643 0 0 0 1-1.758c.065-.252.07-.305.07-.778 0-.47-.005-.526-.068-.774A3.256 3.256 0 0 0 6.71 3.49c-.134-.03-.295-.042-.606-.041-.374 0-.45.008-.661.064a2.827 2.827 0 0 0-1.21.649c-.32.289-.61.752-.747 1.194-.06.198-.067.253-.068.638-.001.366.006.445.055.613.266.914 1.072 1.552 1.96 1.552.494 0 .86-.148 1.196-.483.238-.236.362-.461.425-.767.147-.715-.42-1.41-1.07-1.313-.219.032-.44.247-.44.427 0 .056-.014.083-.048.094-.122.038-.245.31-.14.31.019 0 .215-.034.436-.075.221-.041.414-.068.429-.059.016.01.02.066.01.151-.06.507-.595.72-1.118.446-.238-.126-.42-.395-.47-.7-.073-.437.194-.97.632-1.258a1.42 1.42 0 0 1 .767-.232c.31-.012.511.028.792.157.982.451 1.41 1.626.974 2.67-.23.546-.716 1.042-1.278 1.3-.366.168-.876.265-1.235.236a2.933 2.933 0 0 1-1.893-.877 3.043 3.043 0 0 1-.859-1.599c-.059-.274-.06-.866-.001-1.159a3.621 3.621 0 0 1 3.58-2.886c1.496 0 2.907.889 3.6 2.27.737 1.464.546 3.194-.504 4.57-.715.938-1.745 1.56-2.964 1.788-.317.059-1.087.07-1.441.021A5.256 5.256 0 0 1 .827 8.293 5.213 5.213 0 0 1 .37 5.168a5.65 5.65 0 0 1 1.084-2.504 7.652 7.652 0 0 1 1.02-1.045A6.088 6.088 0 0 1 4.671.537c.544-.135.779-.161 1.446-.16.633 0 .857.023 1.342.136a6.417 6.417 0 0 1 4.394 3.675c.213.495.382 1.109.464 1.693.05.349.043 1.274-.012 1.646-.174 1.191-.643 2.273-1.412 3.261-.241.31-.94.99-1.267 1.234a7.038 7.038 0 0 1-2.188 1.107c-.288.085-.323.09-.338.046z" id="path1370"/><ellipse style="fill:#54688c;fill-opacity:1;stroke-width:1.07782;stroke-dasharray:none" id="path1723" cy="6.146" cx="6.214" rx="1.842" ry="1.752"/><ellipse style="fill:#000;fill-opacity:1;stroke-width:1.07782;stroke-dasharray:none;opacity:.5" id="ellipse1548" cy="6.146" cx="6.214" rx="1.842" ry="1.752"/></g></svg>
